korla/apps/symbolic/web-browser-symbolic.svg

<svg style="clip-rule:evenodd;fill-rule:evenodd;stroke-linejoin:round;stroke-miterlimit:2" version="1.1" viewBox="0 0 16 16" xmlns="http://www.w3.org/2000/svg">
 <path d="m8 0c-4.42 0-8 3.58-8 8s3.58 8 8 8 8-3.58 8-8-3.58-8-8-8zm0 0.8c3.978 0 7.2 3.222 7.2 7.2s-3.222 7.2-7.2 7.2-7.2-3.222-7.2-7.2 3.222-7.2 7.2-7.2z" style="fill-opacity:.3;fill:rgb(223,223,223)"/>
 <path d="m12.86 3.14-3.25 6.47-6.47 3.25 3.25-6.47 6.47-3.25zm-4.86 4c-0.47 0-0.86 0.39-0.86 0.86s0.39 0.86 0.86 0.86 0.86-0.39 0.86-0.86-0.39-0.86-0.86-0.86z" style="fill:rgb(223,223,223)"/>
</svg>

<svg xmlns="http://www.w3.org/2000/svg" width="16" height="16" version="1.1">
 <path style="fill:#dfdfdf" d="M 8,0 C 3.58,0 0,3.58 0,8 0,12.42 3.58,16 8,16 12.42,16 16,12.42 16,8 16,3.58 12.42,0 8,0 Z M 12.86,3.14 9.61,9.61 3.14,12.86 6.39,6.39 Z M 8,7.14 C 7.53,7.14 7.14,7.53 7.14,8 7.14,8.47 7.53,8.86 8,8.86 8.47,8.86 8.86,8.47 8.86,8 8.86,7.53 8.47,7.14 8,7.14 Z"/>
</svg>
